icons/editor-pen-tool-3-filled.svg

<svg width="25" height="24" viewBox="0 0 25 24" fill="none" xmlns="http://www.w3.org/2000/svg">
<g id="pen-tool-03">
<path id="Icon" d="M19.8303 12.6977C20.015 12.1772 19.7428 11.6055 19.2223 11.4208C18.7018 11.2362 18.1301 11.5084 17.9454 12.0289L19.8303 12.6977ZM16.8544 18.0939L17.7968 18.4283L16.8544 18.0939ZM15.483 19.2813L15.6791 20.2619L15.483 19.2813ZM3.51172 21.6756L2.52759 21.4981C2.46885 21.8239 2.5751 22.1576 2.81136 22.3894C3.04761 22.6212 3.38327 22.7211 3.70784 22.6562L3.51172 21.6756ZM5.69634 9.56085L6.68047 9.73832H6.68047L5.69634 9.56085ZM6.95667 8.13299L7.25495 9.08747H7.25495L6.95667 8.13299ZM13.1223 7.25393C13.6494 7.08919 13.9432 6.52832 13.7785 6.00117C13.6138 5.47403 13.0529 5.18023 12.5257 5.34497L13.1223 7.25393ZM3.02118 20.7519C2.63065 21.1424 2.63065 21.7756 3.02118 22.1661C3.4117 22.5566 4.04487 22.5566 4.43539 22.1661L3.02118 20.7519ZM9.63296 16.9686C10.0235 16.578 10.0235 15.9449 9.63296 15.5543C9.24243 15.1638 8.60927 15.1638 8.21874 15.5543L9.63296 16.9686ZM22.3529 8.03197L23.06 7.32486V7.32486L22.3529 8.03197ZM22.3529 9.76449L21.6458 9.05738L22.3529 9.76449ZM15.4228 2.8344L14.7157 2.1273V2.1273L15.4228 2.8344ZM17.1553 2.8344L16.4482 3.54151L17.1553 2.8344ZM13.2572 6.73258L13.9643 6.02547L13.2572 6.73258ZM13.2572 5.00006L13.9643 5.70716L13.2572 5.00006ZM18.4547 11.9301L17.7476 12.6373L18.4547 11.9301ZM20.1872 11.9301L20.8944 12.6373L20.1872 11.9301ZM17.9454 12.0289L15.912 17.7595L17.7968 18.4283L19.8303 12.6977L17.9454 12.0289ZM15.2868 18.3008L3.3156 20.695L3.70784 22.6562L15.6791 20.2619L15.2868 18.3008ZM4.49585 21.853L6.68047 9.73832L4.71221 9.38338L2.52759 21.4981L4.49585 21.853ZM7.25495 9.08747L13.1223 7.25393L12.5257 5.34497L6.6584 7.17851L7.25495 9.08747ZM6.68047 9.73832C6.73583 9.43132 6.9572 9.18052 7.25495 9.08747L6.6584 7.17851C5.64971 7.49373 4.89976 8.34337 4.71221 9.38338L6.68047 9.73832ZM15.912 17.7595C15.8134 18.0374 15.576 18.2429 15.2868 18.3008L15.6791 20.2619C16.6585 20.066 17.4628 19.3696 17.7968 18.4283L15.912 17.7595ZM4.43539 22.1661L9.63296 16.9686L8.21874 15.5543L3.02118 20.7519L4.43539 22.1661ZM19.1618 11.223L13.9643 6.02547L12.55 7.43968L17.7476 12.6373L19.1618 11.223ZM13.9643 5.70716L16.1299 3.54151L14.7157 2.1273L12.55 4.29295L13.9643 5.70716ZM16.4482 3.54151L21.6458 8.73908L23.06 7.32486L17.8624 2.1273L16.4482 3.54151ZM21.6458 9.05738L19.4801 11.223L20.8944 12.6373L23.06 10.4716L21.6458 9.05738ZM21.6458 8.73908C21.7337 8.82697 21.7337 8.96949 21.6458 9.05738L23.06 10.4716C23.929 9.60265 23.929 8.19381 23.06 7.32486L21.6458 8.73908ZM16.1299 3.54151C16.2178 3.45361 16.3603 3.45361 16.4482 3.54151L17.8624 2.1273C16.9935 1.25835 15.5846 1.25835 14.7157 2.1273L16.1299 3.54151ZM13.9643 6.02547C13.8764 5.93757 13.8764 5.79506 13.9643 5.70716L12.55 4.29295C11.6811 5.1619 11.6811 6.57074 12.55 7.43968L13.9643 6.02547ZM17.7476 12.6373C18.6166 13.5062 20.0254 13.5062 20.8944 12.6373L19.4801 11.223C19.3922 11.3109 19.2497 11.3109 19.1618 11.223L17.7476 12.6373ZM10.0661 13.0704C10.6324 12.5041 11.5506 12.5041 12.1169 13.0704L13.5311 11.6562C12.1838 10.3088 9.99924 10.3088 8.65187 11.6562L10.0661 13.0704ZM12.1169 13.0704C12.6832 13.6367 12.6832 14.5549 12.1169 15.1212L13.5311 16.5354C14.8785 15.1881 14.8785 13.0035 13.5311 11.6562L12.1169 13.0704ZM12.1169 15.1212C11.5506 15.6875 10.6324 15.6875 10.0661 15.1212L8.65188 16.5354C9.99924 17.8828 12.1838 17.8828 13.5311 16.5354L12.1169 15.1212ZM10.0661 15.1212C9.49977 14.5549 9.49977 13.6367 10.0661 13.0704L8.65187 11.6562C7.3045 13.0035 7.30451 15.1881 8.65188 16.5354L10.0661 15.1212Z" fill="black"/>
</g>
</svg>

<svg xmlns="http://www.w3.org/2000/svg" width="25" height="24" fill="none" viewBox="0 0 25 24"><path fill="currentColor" d="M19.83 12.698a1 1 0 1 0-1.885-.67zm-2.976 5.396.943.334zm-1.371 1.187.196.98zM3.512 21.676l-.984-.178a1 1 0 0 0 1.18 1.158zM5.696 9.56l.984.177zm1.26-1.428.299.954zm6.166-.88a1 1 0 0 0-.596-1.908zm-10.1 13.499a1 1 0 1 0 1.413 1.414zm6.611-3.783a1 1 0 0 0-1.414-1.415zm12.72-8.937.707-.707zm0 1.732-.707-.707zm-6.93-6.93-.707-.707zm1.732 0-.707.708zm-3.898 3.899.707-.708zm0-1.733.707.707zm5.198 6.93-.707.707zm1.732 0 .707.707zm-2.242.099-2.033 5.73 1.885.67 2.033-5.731zM15.287 18.3 3.316 20.695l.392 1.961 11.971-2.394zM4.496 21.853 6.68 9.738l-1.968-.355-2.184 12.115zM7.255 9.087l5.867-1.833-.596-1.909-5.868 1.834zm-.575.651a.84.84 0 0 1 .575-.65l-.597-1.91a2.84 2.84 0 0 0-1.946 2.205zm9.232 8.022a.84.84 0 0 1-.625.54l.392 1.962a2.84 2.84 0 0 0 2.118-1.834zM4.435 22.165l5.198-5.197-1.414-1.415-5.198 5.198zm14.727-10.943-5.198-5.198L12.55 7.44l5.198 5.197zm-5.198-5.516 2.166-2.165-1.414-1.415-2.166 2.166zm2.484-2.165 5.198 5.197 1.414-1.414-5.198-5.198zm5.198 5.515-2.166 2.166 1.414 1.414 2.166-2.165zm0-.318a.225.225 0 0 1 0 .318l1.414 1.415a2.225 2.225 0 0 0 0-3.147zM16.13 3.542a.225.225 0 0 1 .318 0l1.414-1.415a2.225 2.225 0 0 0-3.146 0zm-2.166 2.483a.225.225 0 0 1 0-.318L12.55 4.293a2.225 2.225 0 0 0 0 3.147zm3.784 6.612a2.225 2.225 0 0 0 3.146 0l-1.414-1.414a.225.225 0 0 1-.318 0zm-7.682.433a1.45 1.45 0 0 1 2.05 0l1.415-1.414a3.45 3.45 0 0 0-4.88 0zm2.05 0a1.45 1.45 0 0 1 0 2.051l1.415 1.414a3.45 3.45 0 0 0 0-4.879zm0 2.051a1.45 1.45 0 0 1-2.05 0l-1.414 1.414a3.45 3.45 0 0 0 4.88 0zm-2.05 0a1.45 1.45 0 0 1 0-2.05l-1.414-1.415a3.45 3.45 0 0 0 0 4.88z"/></svg>
